icons/envoyproxy.svg

<?xml version="1.0" encoding="UTF-8"?>
<svg width="512px" height="167px" viewBox="0 0 512 167" version="1.1" xmlns="http://www.w3.org/2000/svg" xmlns:xlink="http://www.w3.org/1999/xlink" preserveAspectRatio="xMidYMid">
		<g transform="translate(-0.000398, 0.474389)" fill-rule="nonzero">
				<path d="M471.596536,62.4084307 L486.488674,101.665687 L486.702498,101.665687 L500.986513,62.4084307 L511.171586,62.4084307 L487.299831,123.52181 C486.453364,125.713994 485.572567,127.713933 484.65744,129.517703 C483.742314,131.319511 482.649655,132.859435 481.383387,134.132569 C480.114176,135.405703 478.58308,136.395373 476.785195,137.102561 C474.989272,137.808768 472.78826,138.163833 470.182161,138.163833 C468.772689,138.163833 467.345563,138.074576 465.902743,137.898025 C464.457961,137.721473 463.067126,137.350714 461.729256,136.784768 L462.890574,128.084691 C464.786544,128.8625 466.684475,129.250913 468.582406,129.250913 C470.057594,129.250913 471.305226,129.055726 472.325302,128.668293 C473.342436,128.277917 474.221272,127.713933 474.960827,126.969473 C475.69744,126.227956 476.312429,125.36089 476.805793,124.370239 C477.296214,123.379588 477.788597,122.248676 478.281961,120.975542 L481.372597,113.017963 L460.562053,62.4084307 L471.596536,62.4084307 Z M274.570697,61.1352966 C279.026666,61.1352966 282.793103,61.9140859 285.870007,63.4706836 C288.946912,65.0263005 291.474544,67.0595878 293.455846,69.5705457 C295.435187,72.0824844 296.868199,74.9122162 297.752919,78.0577794 C298.636659,81.2062851 299.079019,84.4077564 299.079019,87.6602315 L299.079019,91.0549288 L258.761471,91.0549288 C258.761471,93.2490744 259.239141,95.2470514 260.193502,97.0508215 C261.148843,98.8545916 262.404322,100.392553 263.959938,101.665687 C265.514574,102.938822 267.318344,103.929473 269.371249,104.63568 C271.422191,105.344829 273.543754,105.696952 275.736919,105.696952 C278.707892,105.696952 281.28849,105.0084 283.483617,103.628354 C285.673839,102.249289 287.690452,100.428845 289.530513,98.1640782 L296.744613,103.6823 C291.439233,110.543297 284.012291,113.973304 274.463785,113.973304 C270.502161,113.973304 266.912276,113.299465 263.695111,111.957672 C260.475984,110.614898 257.753164,108.757182 255.524689,106.386484 C253.298176,104.017749 251.58072,101.224308 250.379187,98.0061625 C249.175693,94.7870361 248.575417,91.3040629 248.575417,87.5533196 C248.575417,83.8055189 249.22964,80.3225457 250.539065,77.1034192 C251.846528,73.8862545 253.650299,71.091833 255.949394,68.7221166 C258.247509,66.3524001 260.988965,64.4956644 264.172781,63.1509288 C267.354636,61.8081549 270.819954,61.1352966 274.570697,61.1352966 Z M433.083739,61.1352966 C436.83154,61.1352966 440.333149,61.8248292 443.587586,63.2038943 C446.840061,64.5839403 449.670774,66.4769671 452.076781,68.8800323 C454.479846,71.2870208 456.372873,74.0794805 457.752919,77.2623158 C459.131003,80.4461319 459.821517,83.8771204 459.821517,87.5533196 C459.821517,91.2324614 459.131003,94.6811051 457.752919,97.8992507 C456.372873,101.119358 454.479846,103.911818 452.076781,106.281534 C449.670774,108.651251 446.840061,110.524661 443.587586,111.904707 C440.333149,113.283772 436.83154,113.973304 433.083739,113.973304 C429.332996,113.973304 425.832367,113.283772 422.579892,111.904707 C419.325456,110.524661 416.495724,108.651251 414.091678,106.281534 C411.686651,103.911818 409.794605,101.119358 408.41554,97.8992507 C407.037456,94.6811051 406.346942,91.2324614 406.346942,87.5533196 C406.346942,83.8771204 407.037456,80.4461319 408.41554,77.2623158 C409.794605,74.0794805 411.686651,71.2870208 414.091678,68.8800323 C416.495724,66.4769671 419.325456,64.5839403 422.579892,63.2038943 C425.832367,61.8248292 429.332996,61.1352966 433.083739,61.1352966 Z M333.666482,61.1352966 C336.071509,61.1352966 338.389241,61.5070361 340.615754,62.2495342 C342.84423,62.9930131 344.789241,64.142561 346.45177,65.697197 C348.113318,67.2547756 349.439417,69.2517717 350.431049,71.6930897 C351.42072,74.1324461 351.917026,77.0161242 351.917026,80.33922 L351.917026,112.70017 L342.366559,112.70017 L342.366559,82.9924001 C342.366559,80.6570131 342.048766,78.6600169 341.41318,76.9974882 C340.775632,75.3369212 339.927203,73.9921855 338.86495,72.9662238 C337.80564,71.9402621 336.585471,71.1987449 335.205425,70.7377487 C333.82636,70.2777334 332.393348,70.0472353 330.909333,70.0472353 C328.927049,70.0472353 327.08895,70.3660093 325.391111,71.0025763 C323.693272,71.6391434 322.209256,72.6474499 320.934161,74.026515 C319.661026,75.4055802 318.670375,77.1563848 317.964168,79.277948 C317.256981,81.4014729 316.903877,83.9124307 316.903877,86.8118024 L316.903877,112.70017 L307.355371,112.70017 L307.355371,62.4084307 L316.903877,62.4084307 L316.903877,70.1531664 L317.115739,70.1531664 C318.317272,67.4656568 320.405486,65.291128 323.375479,63.6285993 C326.346452,61.9670514 329.776459,61.1352966 333.666482,61.1352966 Z M366.027433,62.4084307 L381.094161,100.923189 L395.523341,62.4084307 L405.708413,62.4084307 L385.974835,112.70017 L375.470988,112.70017 L354.991969,62.4084307 L366.027433,62.4084307 Z M433.083739,70.0472353 C430.537471,70.0472353 428.238375,70.4905763 426.187433,71.3733349 C424.134528,72.2600169 422.40236,73.4615495 420.988965,74.9808752 C419.573609,76.5031434 418.477026,78.3422238 417.699218,80.4990974 C416.920429,82.6569518 416.532996,85.0070514 416.532996,87.5533196 C416.532996,90.1015495 416.920429,92.45263 417.699218,94.6095035 C418.477026,96.7693196 419.573609,98.6064384 420.988965,100.127726 C422.40236,101.648032 424.134528,102.851527 426.187433,103.734285 C428.238375,104.619986 430.537471,105.060385 433.083739,105.060385 C435.630007,105.060385 437.928122,104.619986 439.980046,103.734285 C442.030988,102.851527 443.763157,101.648032 445.178513,100.127726 C446.592889,98.6064384 447.68849,96.7693196 448.46826,94.6095035 C449.246069,92.45263 449.635463,90.1015495 449.635463,87.5533196 C449.635463,85.0070514 449.246069,82.6569518 448.46826,80.4990974 C447.68849,78.3422238 446.592889,76.5031434 445.178513,74.9808752 C443.763157,73.4615495 442.030988,72.2600169 439.980046,71.3733349 C437.928122,70.4905763 435.630007,70.0472353 433.083739,70.0472353 Z M274.357854,68.7741012 C272.024429,68.7741012 269.88423,69.2164614 267.939218,70.1002008 C265.992245,70.9868828 264.348352,72.1354499 263.004597,73.5488445 C261.660843,74.9642008 260.618207,76.5384537 259.874728,78.2706223 C259.13223,80.0047526 258.761471,81.719266 258.761471,83.4161242 L288.892965,83.4161242 C288.822344,81.294561 288.485915,79.3495495 287.884659,77.5801089 C287.284383,75.81263 286.382007,74.2756491 285.180475,72.9662238 C283.976,71.6577794 282.474329,70.6308369 280.670559,69.8893196 C278.866789,69.1468215 276.7619,68.7741012 274.357854,68.7741012 Z" fill="#FFFFFE"></path>
				<path d="M28.167264,79.4142851 L28.4830955,92.7488445 L12.7435092,99.5362775 L13.5242602,132.922209 L45.6292104,152.815664 L59.8710495,146.673626 L72.6857621,154.618454 L49.0592181,164.803527 C48.8836472,164.872186 48.7080763,164.941825 48.5148502,165.002638 C46.6904824,165.579373 44.526743,165.275312 42.7327813,164.165979 L42.7327813,164.165979 L4.23077361,140.305994 C2.2465284,139.067189 0.991049477,137.04371 0.943969017,134.977074 L0.943969017,134.977074 L0.00137897892,94.9243541 C-0.0457014809,92.8567372 1.11561653,91.0843541 3.04787706,90.2437717 L3.04787706,90.2437717 L28.167264,79.4142851 Z M76.3384211,114.180262 C76.5159537,114.299925 76.6777928,114.43332 76.8602296,114.547097 L76.8602296,114.547097 L89.1658847,122.17217 L89.4728886,135.232094 L76.6493483,127.284323 Z M55.2012564,79.8105457 L69.2439843,88.5076798 L69.5588349,101.851067 L55.5170878,93.1451051 L55.2012564,79.8105457 Z" fill="#953984"></path>
				<path d="M68.3062985,48.7109595 L68.6731338,64.2710514 L48.8875705,72.7935955 L49.9547276,117.97122 L93.3825284,144.88555 L112.511908,136.638622 L127.463877,145.903664 L97.3951568,158.865504 C97.1901606,158.957703 96.9782985,159.038132 96.7605514,159.106791 C94.634084,159.778668 92.111356,159.426546 90.0143138,158.12889 L90.0143138,158.12889 L39.1124901,126.574193 C36.7957391,125.143143 35.3303598,122.781274 35.2832794,120.376247 L35.2832794,120.376247 L34.0327046,67.4156338 C33.9738541,65.0155112 35.3323215,62.9361242 37.5853177,61.9543005 L37.5853177,61.9543005 L68.3062985,48.7109595 Z M98.7869728,43.8665763 L145.531984,72.8377334 C147.848735,74.2678024 149.307249,76.6463464 149.366099,79.0474499 L149.366099,79.0474499 L150.502896,127.386331 L149.730973,127.719818 L135.574467,118.947159 L134.689747,81.4397257 L97.674697,58.5076185 L97.3441529,44.4894116 L98.7869728,43.8665763 Z" fill="#AC6199"></path>
				<path d="M149.218973,134.63476 L92.4958464,99.4842928 L91.1010878,40.4865916 L146.431417,16.6393579 L203.148659,51.7770744 L204.543417,110.774776 L149.218973,134.63476 Z M215.550436,41.951971 L150.284168,1.4980859 C147.876199,0.00622383222 145.006253,-0.387094175 142.551203,0.388752568 C142.309915,0.465258315 142.073532,0.552553334 141.841072,0.651618468 L78.1804441,28.1044307 C75.6018081,29.2167066 74.0510955,31.5854422 74.1158311,34.3357257 L75.7165667,102.231634 C75.7803215,104.981917 77.4556012,107.683159 80.0999537,109.322147 L145.361318,149.763281 C147.760459,151.249258 150.631387,151.653366 153.071724,150.882423 C153.313011,150.805917 153.561164,150.714699 153.803433,150.61073 L217.469946,123.169687 C220.048582,122.057412 221.59341,119.676906 221.528674,116.925641 L219.934804,49.0424844 C219.870069,46.2922008 218.194789,43.5899786 215.550436,41.951971 L215.550436,41.951971 Z" fill="#C04589"></path>
		</g>
</svg>

<svg xmlns="http://www.w3.org/2000/svg" viewBox="0 0 511.172 165.289">
  <path fill="#fffffe" d="m471.597 62.408 14.892 39.258h.214l14.284-39.258h10.185L487.3 123.522a65.158 65.158 0 0 1-2.643 5.996c-.915 1.802-2.007 3.341-3.274 4.615-1.269 1.273-2.8 2.262-4.598 2.97-1.796.706-3.997 1.06-6.603 1.06-1.41 0-2.836-.088-4.28-.265a15.478 15.478 0 0 1-4.173-1.113l1.162-8.7c1.896.778 3.793 1.166 5.691 1.166 1.476 0 2.723-.195 3.743-.583a7.399 7.399 0 0 0 2.636-1.699 9.948 9.948 0 0 0 1.845-2.599c.49-.99.983-2.121 1.476-3.394l3.09-7.958-20.81-50.61zM274.57 61.135c4.456 0 8.222.78 11.299 2.336 3.077 1.555 5.605 3.589 7.586 6.1 1.98 2.511 3.412 5.341 4.297 8.487a35.374 35.374 0 0 1 1.326 9.602v3.395h-40.318c0 2.194.478 4.192 1.433 5.996a14.924 14.924 0 0 0 3.766 4.615c1.555 1.273 3.358 2.263 5.411 2.97a19.34 19.34 0 0 0 6.366 1.06c2.97 0 5.551-.688 7.747-2.068 2.19-1.379 4.206-3.2 6.047-5.464l7.214 5.518c-5.306 6.861-12.733 10.291-22.281 10.291-3.962 0-7.552-.674-10.769-2.015-3.219-1.343-5.942-3.2-8.17-5.572-2.227-2.368-3.944-5.162-5.146-8.38-1.203-3.219-1.804-6.702-1.804-10.453 0-3.747.655-7.23 1.964-10.45 1.308-3.217 3.111-6.011 5.41-8.38 2.299-2.37 5.04-4.227 8.224-5.572 3.182-1.343 6.647-2.016 10.398-2.016zm158.513 0c3.748 0 7.25.69 10.504 2.069 3.252 1.38 6.083 3.273 8.489 5.676a26.884 26.884 0 0 1 5.676 8.382c1.378 3.184 2.069 6.615 2.069 10.291 0 3.68-.691 7.128-2.07 10.346-1.38 3.22-3.272 6.013-5.675 8.383-2.406 2.37-5.237 4.243-8.49 5.623-3.254 1.379-6.755 2.068-10.503 2.068-3.751 0-7.252-.69-10.504-2.068-3.255-1.38-6.084-3.254-8.488-5.623-2.405-2.37-4.297-5.163-5.676-8.383-1.379-3.218-2.07-6.667-2.07-10.346 0-3.676.691-7.107 2.07-10.29a26.834 26.834 0 0 1 5.676-8.383c2.404-2.403 5.233-4.296 8.488-5.676 3.252-1.38 6.753-2.069 10.504-2.069zm-99.418 0c2.406 0 4.723.372 6.95 1.115 2.228.743 4.173 1.893 5.836 3.447 1.661 1.558 2.987 3.555 3.98 5.996.989 2.44 1.485 5.323 1.485 8.646V112.7h-9.55V82.992c0-2.335-.318-4.332-.954-5.995-.637-1.66-1.486-3.005-2.548-4.03a9.545 9.545 0 0 0-3.66-2.23c-1.379-.46-2.812-.69-4.296-.69-1.982 0-3.82.319-5.518.956-1.698.636-3.182 1.644-4.457 3.024-1.273 1.379-2.264 3.13-2.97 5.25-.707 2.124-1.06 4.635-1.06 7.535V112.7h-9.549V62.408h9.549v7.745h.212c1.201-2.687 3.29-4.862 6.26-6.524 2.97-1.662 6.4-2.494 10.29-2.494zm32.361 1.273 15.067 38.515 14.43-38.515h10.184L385.975 112.7H375.47l-20.479-50.292zm67.057 7.64c-2.547 0-4.846.443-6.897 1.325-2.052.887-3.785 2.089-5.198 3.608-1.415 1.522-2.512 3.361-3.29 5.518-.779 2.158-1.166 4.508-1.166 7.054 0 2.549.387 4.9 1.166 7.057.778 2.16 1.875 3.996 3.29 5.518 1.413 1.52 3.146 2.724 5.198 3.606 2.051.886 4.35 1.326 6.897 1.326 2.546 0 4.844-.44 6.896-1.326 2.051-.882 3.783-2.086 5.199-3.606 1.414-1.522 2.51-3.359 3.29-5.518.777-2.157 1.166-4.508 1.166-7.057 0-2.546-.389-4.896-1.167-7.054-.78-2.157-1.875-3.996-3.29-5.518-1.415-1.52-3.147-2.721-5.198-3.608-2.052-.882-4.35-1.326-6.896-1.326zm-158.726-1.274c-2.334 0-4.474.442-6.419 1.326-1.947.887-3.59 2.035-4.934 3.449a15.964 15.964 0 0 0-3.13 4.722c-.743 1.734-1.114 3.448-1.114 5.145h30.132c-.07-2.121-.407-4.066-1.008-5.836-.6-1.767-1.503-3.304-2.705-4.614-1.204-1.308-2.706-2.335-4.51-3.077-1.803-.742-3.908-1.115-6.312-1.115z"/>
  <path fill="#953984" d="m28.167 79.414.316 13.335-15.74 6.787.781 33.386 32.105 19.894 14.242-6.142 12.815 7.944-23.627 10.186c-.175.068-.35.138-.544.199-1.825.576-3.988.272-5.782-.837L4.23 140.306c-1.984-1.239-3.24-3.262-3.287-5.329L.001 94.924c-.047-2.067 1.115-3.84 3.047-4.68zm48.171 34.766c.178.12.34.253.522.367l12.306 7.625.307 13.06-12.824-7.948zM55.201 79.81l14.043 8.698.315 13.343-14.042-8.706z"/>
  <path fill="#ac6199" d="m68.306 48.711.367 15.56-19.785 8.523 1.067 45.177 43.428 26.915 19.129-8.247 14.952 9.265-30.069 12.962a5.795 5.795 0 0 1-.634.24c-2.127.673-4.65.32-6.747-.977l-50.902-31.555c-2.316-1.43-3.782-3.793-3.829-6.198l-1.25-52.96c-.06-2.4 1.3-4.48 3.552-5.462zm30.481-4.844 46.745 28.97c2.317 1.43 3.775 3.81 3.834 6.21l1.137 48.34-.772.333-14.157-8.773-.884-37.507-37.015-22.932-.33-14.019z"/>
  <path fill="#c04589" d="m149.219 134.635-56.723-35.15L91.1 40.486l55.33-23.848 56.718 35.138 1.394 58.998zm66.331-92.683L150.284 1.498c-2.408-1.492-5.278-1.885-7.733-1.11a7.895 7.895 0 0 0-.71.264l-63.66 27.452c-2.58 1.113-4.13 3.481-4.065 6.232l1.6 67.896c.064 2.75 1.74 5.451 4.384 7.09l65.261 40.441c2.4 1.486 5.27 1.89 7.71 1.12.242-.077.49-.168.732-.272l63.667-27.441c2.579-1.113 4.123-3.493 4.059-6.244l-1.594-67.884c-.065-2.75-1.74-5.452-4.385-7.09z"/>
</svg>
